X:0369
M:C
L:1/8
Q:1/4=132
K:G
d2d2 c2c2|B2B2    A4  |d2d2 c2c2|B2B2  A4    |
dBdB cAcA|BGBG    B2A2|dBdB cAcA|BGBG TB2A2  |

